X:353
%%etbk:tnset id:174,pos:2,rep:3x,ant:
%%etbk:wsite http://www.trad.katesplacedoolin.com/tunes/condonfrolics.html
%%etbk:pldat 2015-07-17T16:35,2015-01-19T19:37,2014-12-27T15:05,2014-12-14T15:58,2014-12-08T18:27,2014-12-07T09:55,2014-12-06T16:47,2014-11-19T16:15,2014-05-08T19:14,2014-03-21T16:44,2014-02-16T16:19,2014-02-12T18:48,2013-11-16T14:56,2013-10-23T18:32,2013-10-21T17:47,2013-10-20T14:11,2013-10-02T16:28,2013-09-15T16:43,2013-08-29T15:55,2013-08-27T18:03,2013-08-26T18:09,2013-05-23T18:49,2013-05-21T17:50,2013-05-18T13:30,2013-05-14T18:07,2013-05-12T18:18,2013-05-07T19:04
T: Condon's Frolics
Z: Piano Box Version by Martin Fleischmann
H: Created 2013-02-19 /  Last Modified 2013-04-02
R: Jig
M: 6/8
K: Ador
|: "am"!5!e!1!AB !3!c2d | !5!edc !2!B!1!A!1!G | !5!e!1!AB !3!c2!4!d | !3!e2d !3!e!5!ag |
"am"!3!e!1!AB !3!c2d | !5!edc "em"!2!BBB | !1!G!2!B!3!d !5!g!3!d!2!B | "am"!1!ABA !1!A!2!B!4!d:|
|: "am"!3!e!5!aa !3!ef!5!g | "G"!2!d{g}d!1!c !3!BAG | "am"!3!cBc !4!dcd | !3!e2d !3!efg |
"am"!3!e!5!aa !3!ef!5!g | "G"!2!d{g}d!1!c !2!BAB |  !1!G!2!B!3!d !5!g!3!d!2!B | "am"!1!ABA !1!A!2!B!4!d:|


